X:763
T:Nan Robh Mise 
C:Joe Buchanan's Scottish Tome - Page 527.3
I:527 3
Z:Carl Allison
R:Slow Air
L:1/4
M:3/4
K:C
G, | C2 E | G3 | G2 c | c2 A | G3 | G3 | C2 E | G3 |
G2 A | G2 E | D3- | D3 | C2 E | G3 | G3 | G2 e | d2 c |
c3 | C2 C | C2 D | E3 | E2 G | D2 E | C3- | C3 |]

